X:05c
T:Cherokee Shuffle
S:Jim Coon to CoMandoList TOW
N:An amalgam, a lot of Steve Kaufman
M:4/4
L:1/8
K:D
A,2B,2 C2|D2DF EDB,A,|DEDB, A,2A,B,|D2DE F2A2|B2BB B2Bc|!
d2d2 d2B2|ABAA GFED E|FEDE F2A2|B2BB B2dB|!
ABAG F2E2|D2:||d2c2 =c2|BABc d2B2|!
ABAG F2dc|BABc d2e2|f2ff f2dc|BABc d2B2|!
ABAA GFED E|FEDE F2A2|B2BB B2dB|ABAG F2E2|D2:||!
